X: 49
T:Plygiad y Bedol
T:The Bend of the Horse-shoe
M:3/4
L:1/8
Q:200
C:Trad
S:51 Welsh Airs
R:Waltz
A:Wales
H:From a facsimile c.1840: A Choice Collection of Fifty-One Welsh Airs
H:adapted for The Harp, Piano-Forte, Harpsichord,
H:Violin, or Flute by Edward Jones
H:"Harper to His Late Majesty King George IV, when
H:Prince of Wales".
Z:brian_martin12345@yahoo.com
K:C
"Gracefully and Easy"
g2fedc|e>gA2B2|(c>d)cB Ac|G2{FG}F2E2|FGAB ce|dcBA GB|d2dcBA|B>cBA|
c2B2c2|G2{FG}F2E2|c2 cBAc|G2{FG}F2E2|FGAB ce|fedc dB|cfedcB|c6||
